X:1
T:Title
%%score ( 1 2 3 )
L:1/8
M:2/4
K:G
V:1 treble-8 nm="Guitar"
V:2 treble-8 
V:3 treble-8 
V:1
 z2 z/[Q:1/4=60] g^d/ |: %1
"^Garoto                  Ernesto Nazareth              arr. for solo guitar by G.Dempsey" [GBf]/[Be][GB]/ dc | %2
 B>[^DAB] z/ B/^c/^d/ | e/^d/e/f/ g/f/g/a/ | b>[fb] z/ g^d/ | [GBf]/[Be]^A/ B^c | %6
 d/F/B/d/- d/!1!d'/!1!^c'/b/ |"^CXIII......................." !4!_b/!1!g/!4!f/e/ d/^c/=B/^A/ | %8
 [Ac]/B/A/^D/ z/ g^d/ | [GBf]/[Be][GB]/ dc | B>[^DAB] z/ B/^c/^d/ | e/^d/e/f/ g/f/g/a/ | %12
 b>[fb] z/ c'/b/a/ | ^g/=f/e/d/ c/B/A/^G/ | A/E/A/c/ e/!-(!!1!a/!-)!!1!b/c'/ | %15
 !1!b/^a/b/!4!g'/ f'/=a/b/f'/ |1 [gbe']2 z/ g^d/ :|2 [gbe']2 z2 |: %18
"^CV.........................." f>[c-f] [ca]>a | [Be]>e z/ gg/ | f/[cd][de]/ f/g/a/^a/ | %21
 b>b z/ c'^g/ | [^cb]>a z/ bf/ | [Ba]>g z/ fe/ | d/F/B/d/ ^c/E/^A/c/ | B>[FB] z/ df/ | %26
 f>[c-f] [ca]>a | [Be]>e z/ gg/ | f/[cd]e/ f/g/a/^a/ | b>b z/ c'^g/ | %30
"^CIX......................" !1![eb]>!2!a z/ f'^c'/ | %31
"^12th harmonics optional.............................." e'>!1!d' z/ ^d'/e'/b/ | %32
 d'/c'/e/=f/ ^f/d/b/a/ |1 [Bg]>[dbg'] z/ de/ :|2 [Bg]>[dbg'] z/ g^d/!D.C.! || %35
[K:E] [B,EG]/[B,EG][B,EG]/ [FB]2 | [EAe]/[EAe][EAe]/ [FAf]2 | g/[Bea][Be^a]/ !-(![Beb]/!-)!e'=d'/ | %38
 c'/ab/ [ec']2 | z/ AB/ c/gf/ | e/dG/ B/A=F/ | g/fc/ e/dA/ | [Gc]/BG/ E/cB/ | %43
 [B,EG]/[B,EG][B,EG]/ [FB]2 | [EAe]/[EAe][EAe]/ [FAf]2 | g/[Bea][Be^a]/ !-(![Beb]/!-)!e'=d'/ | %46
 c'/ab/ [gc']2 | a/[Ag][Af]/ e/dc/ | e'/!1!ga/ ^a/b=c'/ | %49
 d'/c'g/"^CVII.........................." b/af/ | e2 [ege']2 |] %51
V:2
 x4 |: E2 B,G | F,<[^DA] B,[B,A] | G,/B[EB]/ B,[EB] | [^Df]/!0![AB]D/ B,[AB] | E2 =F[B,^G] | %6
 F,/B,B,/- B,!2!f | C/[_Be][GB]/ FE | B,>F, B,2 | E2 B,G | F,<[^DA] B,[B,A] | G,/B[EB]/ F,[EB] | %12
 [^Df]/!0![AB]D/ B,!0![AB] | [B,Bd]/ z [E^G]/ DE | C/E[EA]/ A,!0!e | !2!^d/^^d/^d/ z/ dd |1 %16
 z/ EE/ E,2 :|2 z/ EE/ E,2 |: [A,c]/[Dd]D/ D[Fcd] | G,/[DG][DGB-]/ [B,B][Gd] | A,/FF/ D[Fcd] | %21
 G/!0![Bd][Gd]/ E[^Gde] | A,/[^ce][ce]/ ^D[A=c] | E/[GB][GB]/ E=F | F,>[B,F] F,[CE] | %25
 [B,F]/[B,F] z/ B,2 | [A,c]/[Dd]D/ D[Fcd] | G,/[DG][DGB-]/ [B,B][Gd] | A,/F[Fc]/ D[Fcd] | %29
 G/!0![Bd][Gd]/ E[^Gde] | !1!C/Ae/ c[^Ae] | d/[gb][gb]/ E,[Dg]/E,/ | A,>[Ac] D[Fc] |1 %33
 G,[DG] G,2 :|2 G,[DG] G2 ||[K:E] E,/E,E,/ DD | C/CC/ B,B, | E,E, E,!1![Beg] | %38
 A,/[ce][ce]/ A[B,c^e] | F,/CC/ E,[FAc] | z/ [B,A]B,/ [B,D]B, | z/ [Bd]B/ [DB]D | E,/[EG]E/ B,G | %43
 E,/E,E,/ DD | C/CC/ B,B, | E,E, E,!1![Beg] | A,/[Ace][Ace]/ g!0![=FBc] | F,/CC/ ^A,[CE=G] | %48
 E,/!1!ee/ GE, | A,/[cf]^A/ [B,B][F=Ad] | [GB]2 E,2 |] %51
V:3
 x4 |: x4 | x4 | x4 | x4 | x4 | x4 | x4 | x4 | x4 | x4 | x4 | x4 | x4 | x4 | x4 |1 x4 :|2 x4 |: %18
 x4 | x4 | x4 | x4 | x4 | x4 | x4 | x4 | x4 | x4 | x4 | x4 | x4 | x4 | x4 |1 x4 :|2 x4 ||[K:E] x4 | %36
 x4 | x4 | x4 | x4 | D4 | B,4 | x4 | x4 | x4 | x4 | x4 | x4 | x4 | x4 | x4 |] %51

